svgs/filen.svg

<svg width="192" height="192" viewBox="0 0 192 192" fill="none" xmlns="http://www.w3.org/2000/svg">
<path d="M170 96C170 136.869 136.869 170 96 170C55.1309 170 22 136.869 22 96C22 55.1309 55.1309 22 96 22C136.869 22 170 55.1309 170 96Z" stroke="black" stroke-width="12"/>
<circle cx="5" cy="5" r="5" transform="matrix(-1 0 0 1 116 41)" stroke="black" stroke-width="10"/>
<circle cx="5" cy="5" r="5" transform="matrix(-1 0 0 1 75 91)" stroke="black" stroke-width="10"/>
<circle cx="5" cy="5" r="5" transform="matrix(-1 0 0 1 101 112)" stroke="black" stroke-width="10"/>
<circle cx="5" cy="5" r="5" transform="matrix(-1 0 0 1 125 97)" stroke="black" stroke-width="10"/>
<path d="M43 148L43 46" stroke="black" stroke-width="10" stroke-linecap="round"/>
<path d="M43 46H104" stroke="black" stroke-width="10" stroke-linecap="round"/>
<path d="M70 88L70 78C70 74.6863 72.6863 72 76 72H138C141.314 72 144 69.3137 144 66V41" stroke="black" stroke-width="10" stroke-linecap="round"/>
<path d="M70 164L70 123C70 119.686 72.6863 117 76 117H88" stroke="black" stroke-width="10" stroke-linecap="round"/>
<path d="M120 111L120 165" stroke="black" stroke-width="10" stroke-linecap="round"/>
<path d="M167 102H150C146.686 102 144 104.686 144 108L144 150" stroke="black" stroke-width="10" stroke-linecap="round"/>
</svg>

<svg xmlns="http://www.w3.org/2000/svg" width="192" height="192" fill="none" viewBox="0 0 192 192"><path stroke="#000" stroke-width="12" d="M170 96c0 40.869-33.131 74-74 74-40.87 0-74-33.131-74-74 0-40.87 33.13-74 74-74 40.869 0 74 33.13 74 74Z"/><circle cx="5" cy="5" r="5" stroke="#000" stroke-width="10" transform="matrix(-1 0 0 1 116 41)"/><circle cx="5" cy="5" r="5" stroke="#000" stroke-width="10" transform="matrix(-1 0 0 1 75 91)"/><circle cx="5" cy="5" r="5" stroke="#000" stroke-width="10" transform="matrix(-1 0 0 1 101 112)"/><circle cx="5" cy="5" r="5" stroke="#000" stroke-width="10" transform="matrix(-1 0 0 1 125 97)"/><path stroke="#000" stroke-linecap="round" stroke-width="10" d="M43 148V46m0 0h61M70 88V78a6 6 0 0 1 6-6h62a6 6 0 0 0 6-6V41M70 164v-41a6 6 0 0 1 6-6h12m32-6v54m47-63h-17a6 6 0 0 0-6 6v42"/></svg>
